assets/efishery/es-balok.svg

<svg width="24" height="25" viewBox="0 0 24 25" fill="none" xmlns="http://www.w3.org/2000/svg">
<path d="M10.3711 10.9483L12.5071 9.66672C12.8623 9.45361 12.9775 8.99292 12.7644 8.63773C12.5513 8.28254 12.0906 8.16737 11.7354 8.38048L9.58842 9.66866L6.95667 8.35278C6.58618 8.16754 6.13568 8.31771 5.95044 8.68819C5.7652 9.05868 5.91536 9.50918 6.28585 9.69442L8.87109 10.987V14.0234C8.87109 14.4377 9.20688 14.7734 9.62109 14.7734C10.0353 14.7734 10.3711 14.4377 10.3711 14.0234V10.9483Z" fill="#1D1D1D"/>
<path d="M5.12109 10.7734C5.25917 10.7734 5.37109 10.8854 5.37109 11.0234V12.3689L6.2329 12.7998C6.35639 12.8616 6.40645 13.0117 6.3447 13.1352C6.28295 13.2587 6.13279 13.3088 6.00929 13.247L5.00929 12.747C4.92459 12.7047 4.87109 12.6181 4.87109 12.5234V11.0234C4.87109 10.8854 4.98302 10.7734 5.12109 10.7734Z" fill="#1D1D1D"/>
<path d="M19.8411 13.9402L18.1582 14.9499V17.3871C18.1582 17.8013 17.8224 18.1371 17.4082 18.1371C16.994 18.1371 16.6582 17.8013 16.6582 17.3871V14.987L14.6198 13.9679C14.2493 13.7826 14.0992 13.3321 14.2844 12.9616C14.4697 12.5911 14.9202 12.441 15.2907 12.6262L17.377 13.6694L19.0694 12.6539C19.4246 12.4408 19.8853 12.556 20.0984 12.9112C20.3115 13.2664 20.1963 13.727 19.8411 13.9402Z" fill="#1D1D1D"/>
<path d="M13.9766 14.9316C13.9766 14.7936 13.8646 14.6816 13.7266 14.6816C13.5885 14.6816 13.4766 14.7936 13.4766 14.9316V16.1589C13.4766 16.2536 13.5301 16.3402 13.6148 16.3825L14.4329 16.7916C14.5564 16.8534 14.7066 16.8033 14.7684 16.6798C14.8301 16.5563 14.78 16.4061 14.6565 16.3444L13.9766 16.0044V14.9316Z" fill="#1D1D1D"/>
<path fill-rule="evenodd" clip-rule="evenodd" d="M8.81074 4.34066C8.98946 4.25943 9.19291 4.2515 9.3774 4.31859L14.8774 6.31859C15.1738 6.42637 15.3711 6.70806 15.3711 7.02344V9.94001L16.6896 9.34066C16.8684 9.25943 17.0718 9.2515 17.2563 9.31859L21.7563 10.955C22.0527 11.0627 22.25 11.3444 22.25 11.6598V16.978C22.25 17.2227 22.1306 17.4521 21.9301 17.5924L17.8392 20.456C17.5994 20.6239 17.284 20.6369 17.0312 20.4895L14.9391 19.2691C14.9162 19.4719 14.8611 19.6693 14.7777 19.8538C14.4803 20.5122 13.8144 21.0229 12.9997 21.0229C12.4048 21.0229 11.9816 20.8703 11.6486 20.6151C11.4227 20.4419 11.2349 20.2076 11.0982 20.037C11.0596 19.989 11.0252 19.946 10.9951 19.9108C10.8388 19.7285 10.6923 19.5995 10.4541 19.5218C10.2 19.4389 9.78911 19.3983 9.08189 19.5161C8.33331 19.6409 7.7286 19.5965 7.27233 19.3701C6.78988 19.1308 6.54102 18.7218 6.4616 18.2872C6.38605 17.8737 6.46241 17.4457 6.58998 17.091C6.68652 16.8225 6.82398 16.5638 6.98511 16.3541L5.601 15.5467C4.69844 16.0477 3.49832 16.0126 2.68224 15.6726C2.24807 15.4916 1.808 15.176 1.64893 14.6856C1.47551 14.1509 1.69649 13.6195 2.14599 13.17C2.40416 12.9118 2.64361 12.7353 2.87109 12.6399V12.295C2.24898 12.325 1.6875 12.029 1.34638 11.5741C1.08851 11.2303 0.948488 10.7853 1.01754 10.325C1.08798 9.85534 1.3674 9.42585 1.84403 9.1081C2.31 8.79746 2.63858 8.4306 2.84818 8.11149C2.856 8.09958 2.86364 8.08777 2.87109 8.07605V7.52344C2.87109 7.22933 3.043 6.96237 3.31074 6.84066L8.81074 4.34066ZM8.65201 17.3264L7.69384 17.0869C7.63503 17.1832 7.57766 17.2996 7.53098 17.4294C7.44137 17.6786 7.41128 17.9212 7.44532 18.1075C7.47549 18.2726 7.55226 18.3927 7.71678 18.4743C7.90749 18.569 8.2711 18.6375 8.91749 18.5298C9.71027 18.3976 10.2994 18.4195 10.7641 18.571C11.2445 18.7277 11.5356 19.0049 11.7543 19.2601C11.83 19.3483 11.8902 19.4233 11.9429 19.4889C12.0561 19.6298 12.1348 19.7277 12.257 19.8215C12.3928 19.9256 12.5945 20.0229 12.9997 20.0229C13.378 20.0229 13.7121 19.7837 13.8664 19.4421C13.9781 19.1948 13.9908 18.9032 13.8372 18.6263L12.1221 17.6258C11.8917 17.4914 11.75 17.2447 11.75 16.978V16.4487L10.0512 17.6379C9.81144 17.8057 9.49598 17.8187 9.24319 17.6713L8.65201 17.3264ZM3.24319 14.1713C3.09783 14.0865 2.98778 13.957 2.92634 13.806C2.90317 13.8278 2.87877 13.8514 2.8531 13.8771C2.55259 14.1776 2.58608 14.3337 2.60016 14.3771C2.62859 14.4647 2.75102 14.6179 3.06685 14.7495C3.46668 14.9161 3.99281 14.9705 4.47285 14.8886L3.24319 14.1713ZM2.87109 9.58107C2.72739 9.70521 2.57011 9.8259 2.39873 9.94015C2.12536 10.1224 2.02978 10.3179 2.00648 10.4733C1.98178 10.638 2.02926 10.818 2.14638 10.9741C2.2998 11.1787 2.55922 11.3254 2.87109 11.2914V9.58107ZM13.8711 7.54876V10.6218L12.1896 11.3861C11.9219 11.5078 11.75 11.7748 11.75 12.0689V14.6216C11.73 14.6331 11.7103 14.6455 11.691 14.659L9.5843 16.1337L4.37109 13.0927V8.00637L9.15262 5.83295L13.8711 7.54876ZM17.0315 10.833L13.25 12.5518V16.5472L17.3723 18.9519L20.75 16.5875V12.1851L17.0315 10.833Z" fill="#1D1D1D"/>
</svg>

<svg viewBox="0 0 24 25" xmlns="http://www.w3.org/2000/svg">
  <path d="m10.371 10.948 2.136-1.281a.75.75 0 1 0-.772-1.287L9.588 9.67 6.957 8.353a.75.75 0 0 0-.671 1.341l2.585 1.293v3.036a.75.75 0 1 0 1.5 0v-3.075zM5.121 10.773a.25.25 0 0 1 .25.25v1.346l.862.43a.25.25 0 0 1-.224.448l-1-.5a.25.25 0 0 1-.138-.224v-1.5a.25.25 0 0 1 .25-.25zM19.841 13.94l-1.683 1.01v2.437a.75.75 0 0 1-1.5 0v-2.4l-2.038-1.02a.75.75 0 0 1 .67-1.34l2.087 1.042 1.692-1.015a.75.75 0 0 1 .772 1.286zM13.977 14.932a.25.25 0 0 0-.5 0v1.227a.25.25 0 0 0 .138.224l.818.409a.25.25 0 1 0 .223-.448l-.68-.34v-1.072z"/>
  <path fill-rule="evenodd" clip-rule="evenodd" d="M8.81 4.34a.75.75 0 0 1 .567-.021l5.5 2a.75.75 0 0 1 .494.704V9.94l1.319-.6a.75.75 0 0 1 .566-.021l4.5 1.636a.75.75 0 0 1 .494.705v5.318a.75.75 0 0 1-.32.614l-4.09 2.864a.75.75 0 0 1-.809.034l-2.092-1.22c-.023.202-.078.4-.161.584-.298.658-.964 1.169-1.778 1.169-.595 0-1.018-.153-1.351-.408-.226-.173-.414-.407-.55-.578l-.104-.126c-.156-.183-.303-.312-.54-.39-.255-.082-.666-.123-1.373-.005-.749.125-1.353.08-1.81-.146a1.467 1.467 0 0 1-.81-1.083c-.076-.413 0-.841.128-1.196.097-.268.234-.527.395-.737l-1.384-.807c-.903.5-2.103.466-2.919.126-.434-.181-.874-.497-1.033-.987-.173-.535.047-1.066.497-1.516.258-.258.498-.435.725-.53v-.345a1.802 1.802 0 0 1-1.525-.72 1.673 1.673 0 0 1-.328-1.25c.07-.47.35-.9.826-1.217a3.58 3.58 0 0 0 1.027-1.032v-.553a.75.75 0 0 1 .44-.682l5.5-2.5zm-.158 12.986-.958-.24a1.892 1.892 0 0 0-.163.343c-.09.25-.12.492-.086.679a.47.47 0 0 0 .272.366c.19.095.554.163 1.2.056.793-.132 1.382-.11 1.847.041.48.157.772.434.99.69.076.087.136.162.189.228.113.14.192.239.314.332.136.105.338.202.743.202.378 0 .712-.24.866-.58a.89.89 0 0 0-.029-.817l-1.715-1a.75.75 0 0 1-.372-.648v-.53l-1.699 1.19a.75.75 0 0 1-.808.033l-.591-.345zm-5.409-3.155a.75.75 0 0 1-.317-.365 3.283 3.283 0 0 0-.073.071c-.3.3-.267.457-.253.5.029.088.151.24.467.372.4.167.926.221 1.406.14l-1.23-.718zm-.372-4.59a4.768 4.768 0 0 1-.472.36c-.274.181-.37.377-.393.532a.674.674 0 0 0 .14.501.791.791 0 0 0 .725.317v-1.71zm11-2.032v3.073l-1.681.764a.75.75 0 0 0-.44.683v2.553a.788.788 0 0 0-.059.037l-2.107 1.475-5.213-3.041V8.006l4.782-2.173 4.718 1.716zm3.16 3.284-3.781 1.719v3.995l4.122 2.405 3.378-2.365v-4.402l-3.718-1.352z"/>
</svg>
